X:1
T:[ID 2-73a]
T:[ID 2-73a]
T:Bezeichnung standardisiert: Schottisch Schottisch
T:Urheber unbekannt Erstbeleg: 1767 (Datum in der schriftlichen Quelle) Datum in der hier transkribierten schriftlichen Quelle: 1799
C:Urheber unbekannt
C:Erstbeleg: 1767 (Datum in der schriftlichen Quelle)
C:Datum in der hier transkribierten schriftlichen Quelle: 1799
%%score 1 2
L:1/8
M:3/8
K:G
V:1 treble nm="Primo"
V:2 treble nm="Secondo"
V:1
 g2 d/e/ | dcB | ABc | B/A/B/c/B | g2 d/e/ | dcB | ABc | B2 B :: gfg | d2 d | gfg | e2 e/f/ | gfg | %13
 dcB | AGF | G2 G :| %16
V:2
 !fermata!B2 B/c/ | BAG | FGA | G/F/G/A/G | B2 B/c/ | BAG | FGA | G2 G :: BAB | B2 B | BAB | %11
 c2 c/d/ | BAB | BAG | CB,A, | B,2 B, :| %16

